packages/icons/src/components/Icon/assets/small-outline/adjustments-horizontal.svg

<svg width="16" height="16" viewBox="0 0 16 16" fill="none" xmlns="http://www.w3.org/2000/svg">
<path d="M6.84615 1.80769C6.84615 1.36162 6.48454 1 6.03846 1C5.59239 1 5.23077 1.36162 5.23077 1.80769V5.03846C5.23077 5.48454 5.59239 5.84615 6.03846 5.84615C6.48454 5.84615 6.84615 5.48454 6.84615 5.03846V4.23077H14.1154C14.5615 4.23077 14.9231 3.86915 14.9231 3.42308C14.9231 2.977 14.5615 2.61538 14.1154 2.61538H6.84615V1.80769Z" fill="black"/>
<path d="M11.6923 6.38462C11.6923 5.93854 11.3307 5.57692 10.8846 5.57692C10.4385 5.57692 10.0769 5.93854 10.0769 6.38462V9.61539C10.0769 10.0615 10.4385 10.4231 10.8846 10.4231C11.3307 10.4231 11.6923 10.0615 11.6923 9.61539V8.80769H14.1154C14.5615 8.80769 14.9231 8.44608 14.9231 8C14.9231 7.55392 14.5615 7.19231 14.1154 7.19231H11.6923V6.38462Z" fill="black"/>
<path d="M6.03846 10.1538C6.48454 10.1538 6.84615 10.5155 6.84615 10.9615V11.7692H14.1154C14.5615 11.7692 14.9231 12.1308 14.9231 12.5769C14.9231 13.023 14.5615 13.3846 14.1154 13.3846H6.84615V14.1923C6.84615 14.6384 6.48454 15 6.03846 15C5.59239 15 5.23077 14.6384 5.23077 14.1923V10.9615C5.23077 10.5155 5.59239 10.1538 6.03846 10.1538Z" fill="black"/>
<path d="M2.80769 7.19231H9V8.80769H2.80769C2.36162 8.80769 2 8.44608 2 8C2 7.55392 2.36162 7.19231 2.80769 7.19231Z" fill="black"/>
<path d="M4.15385 2.61538H2.80769C2.36162 2.61538 2 2.977 2 3.42308C2 3.86915 2.36162 4.23077 2.80769 4.23077H4.15385V2.61538Z" fill="black"/>
<path d="M2.80769 11.7692H4.15385V13.3846H2.80769C2.36162 13.3846 2 13.023 2 12.5769C2 12.1308 2.36162 11.7692 2.80769 11.7692Z" fill="black"/>
</svg>

<svg xmlns="http://www.w3.org/2000/svg" width="16" height="16" fill="none" viewBox="0 0 16 16">
    <path fill="#000" d="M6.846 1.808a.808.808 0 1 0-1.615 0v3.23a.808.808 0 1 0 1.615 0v-.807h7.27a.808.808 0 1 0 0-1.616h-7.27zm4.846 4.577a.808.808 0 1 0-1.615 0v3.23a.808.808 0 1 0 1.615 0v-.807h2.423a.808.808 0 1 0 0-1.616h-2.423zm-5.654 3.769c.447 0 .808.361.808.807v.808h7.27a.808.808 0 1 1 0 1.616h-7.27v.807a.808.808 0 1 1-1.615 0v-3.23c0-.447.361-.808.807-.808m-3.23-2.962H9v1.616H2.808a.808.808 0 1 1 0-1.616m1.346-4.577H2.808a.808.808 0 0 0 0 1.616h1.346zM2.808 11.77h1.346v1.615H2.808a.808.808 0 1 1 0-1.616"/>
</svg>
